public/avatar/emote/100.svg

<svg xmlns:xlink="http://www.w3.org/1999/xlink" height="100.8" width="132.65" xmlns="http://www.w3.org/2000/svg"><use height="13.35" transform="translate(67.7 65.9)" width="19.55" xlink:href="#a"/><defs><g id="a"><path d="m6.65 1.25 2.3.7.55.65-2.5.2h-.35l-1-.1-2-.15-3.2-.15-5 .1-2 .2h-.2l-.5.1-2.75-.1-.05-.1q0-.6 1.9-1.3l2.5-.6.05-.05.45-.05 3.9-.4h1.3L.5.25 3.55.6l1.3.2 1.8.45" fill-opacity=".153" fill-rule="evenodd" transform="translate(10.05 7.65)"/><path d="M7.1-.8 6.4.45q-.8 1-1.9 1.15h-.4l-.75-.1Q2.5 1.25 1.9.45 1.05-.6.95-2v-.3q0-1.65.95-2.75.9-1.15 2.2-1.15 1.35 0 2.3 1.15.9 1.1.9 2.75L7.1-.8M-8.25-2.25q-.05-2 1.15-3.45Q-6-7.15-4.3-7.15q1.65 0 2.8 1.45t1.15 3.45v.3Q-.45-.15-1.5 1.2l-1.3 1.1-1.5.35-1.1-.2q-.95-.3-1.7-1.25Q-7.7.5-8-.4q-.3-.85-.25-1.85" fill="#fff" fill-rule="evenodd" transform="translate(10.05 7.65)"/><path d="M7.1-.8 6.4.45q-.8 1-1.9 1.15h-.4l-.75-.1Q2.5 1.25 1.9.45 1.05-.6.95-2v-.3q0-1.65.95-2.75.9-1.15 2.2-1.15 1.35 0 2.3 1.15.9 1.1.9 2.75L7.1-.8M-8.25-2.25q-.05-2 1.15-3.45Q-6-7.15-4.3-7.15q1.65 0 2.8 1.45t1.15 3.45v.3Q-.45-.15-1.5 1.2l-1.3 1.1-1.5.35-1.1-.2q-.95-.3-1.7-1.25Q-7.7.5-8-.4q-.3-.85-.25-1.85" fill="none" stroke="#666" stroke-linecap="round" stroke-linejoin="round" transform="translate(10.05 7.65)"/><path d="m-4.95-2.5.45-1.05L-3.45-4q.6 0 1 .45Q-2-3.1-2-2.5q0 .6-.45 1.05-.4.45-1 .45t-1.05-.45q-.45-.45-.45-1.05m7.8 0 .2-.5.45-.15.45.15.2.5-.2.45q-.2.2-.45.2l-.45-.2-.2-.45" fill-rule="evenodd" transform="translate(10.05 7.65)"/><path d="M2.15 5.2H-2.2" fill="none" stroke="#666" stroke-linecap="round" stroke-linejoin="round" transform="translate(10.05 7.65)"/></g></defs></svg>

<?xml version="1.0" encoding="UTF-8" standalone="no"?>
<svg xmlns:xlink="http://www.w3.org/1999/xlink" height="100.8px" width="132.65px" xmlns="http://www.w3.org/2000/svg">
  <g transform="matrix(1.0, 0.0, 0.0, 1.0, 77.75, 73.55)">
    <use height="13.35" transform="matrix(1.0, 0.0, 0.0, 1.0, -10.05, -7.65)" width="19.55" xlink:href="#shape0"/>
  </g>
  <defs>
    <g id="shape0" transform="matrix(1.0, 0.0, 0.0, 1.0, 10.05, 7.65)">
      <path d="M6.65 1.25 L8.95 1.95 9.5 2.6 7.0 2.8 6.65 2.8 5.65 2.7 3.65 2.55 0.45 2.4 -4.55 2.5 -6.55 2.7 -6.75 2.7 -7.25 2.8 -10.0 2.7 -10.05 2.6 Q-10.05 2.0 -8.15 1.3 L-5.65 0.7 -5.6 0.65 -5.15 0.6 -1.25 0.2 0.05 0.2 0.5 0.25 3.55 0.6 4.85 0.8 6.65 1.25" fill="#000000" fill-opacity="0.15294118" fill-rule="evenodd" stroke="none"/>
      <path d="M7.1 -0.8 L6.4 0.45 Q5.6 1.45 4.5 1.6 L4.1 1.6 3.35 1.5 Q2.5 1.25 1.9 0.45 1.05 -0.6 0.95 -2.0 L0.95 -2.3 Q0.95 -3.95 1.9 -5.05 2.8 -6.2 4.1 -6.2 5.45 -6.2 6.4 -5.05 7.3 -3.95 7.3 -2.3 L7.1 -0.8 M-8.25 -2.25 Q-8.3 -4.25 -7.1 -5.7 -6.0 -7.15 -4.3 -7.15 -2.65 -7.15 -1.5 -5.7 -0.35 -4.25 -0.35 -2.25 L-0.35 -1.95 Q-0.45 -0.15 -1.5 1.2 L-2.8 2.3 -4.3 2.65 -5.4 2.45 Q-6.35 2.15 -7.1 1.2 -7.7 0.5 -8.0 -0.4 -8.3 -1.25 -8.25 -2.25" fill="#ffffff" fill-rule="evenodd" stroke="none"/>
      <path d="M7.1 -0.8 L6.4 0.45 Q5.6 1.45 4.5 1.6 L4.1 1.6 3.35 1.5 Q2.5 1.25 1.9 0.45 1.05 -0.6 0.95 -2.0 L0.95 -2.3 Q0.95 -3.95 1.9 -5.05 2.8 -6.2 4.1 -6.2 5.45 -6.2 6.4 -5.05 7.3 -3.95 7.3 -2.3 L7.1 -0.8 M-8.25 -2.25 Q-8.3 -4.25 -7.1 -5.7 -6.0 -7.15 -4.3 -7.15 -2.65 -7.15 -1.5 -5.7 -0.35 -4.25 -0.35 -2.25 L-0.35 -1.95 Q-0.45 -0.15 -1.5 1.2 L-2.8 2.3 -4.3 2.65 -5.4 2.45 Q-6.35 2.15 -7.1 1.2 -7.7 0.5 -8.0 -0.4 -8.3 -1.25 -8.25 -2.25" fill="none" stroke="#666666" stroke-linecap="round" stroke-linejoin="round" stroke-width="1.0"/>
      <path d="M-4.95 -2.5 L-4.5 -3.55 -3.45 -4.0 Q-2.85 -4.0 -2.45 -3.55 -2.0 -3.1 -2.0 -2.5 -2.0 -1.9 -2.45 -1.45 -2.85 -1.0 -3.45 -1.0 -4.05 -1.0 -4.5 -1.45 -4.95 -1.9 -4.95 -2.5" fill="#000000" fill-rule="evenodd" stroke="none"/>
      <path d="M2.85 -2.5 L3.05 -3.0 3.5 -3.15 3.95 -3.0 4.15 -2.5 3.95 -2.05 Q3.75 -1.85 3.5 -1.85 L3.05 -2.05 2.85 -2.5" fill="#000000" fill-rule="evenodd" stroke="none"/>
      <path d="M2.15 5.2 L-2.2 5.2" fill="none" stroke="#666666" stroke-linecap="round" stroke-linejoin="round" stroke-width="1.0"/>
    </g>
  </defs>
</svg>
